X: 95
T: Je'n ay dueil
N: Derived from Ock3023-Jen_ay_dueil.krn
C: Johannes Ockeghem
%%abc-version 2.0
%%abcx-abcm2ps-target-version 5.9.1 (29 Sep 2008)
%%abc-creator hum2abc beta
%%abcx-conversion-date 2019/02/17 07:26:16
%%abc-edited-by Jesse Rodin
%%abc-edited-by Chris Gage 06-26-2012
%%abcx-initial-encoding-date 2012/08/16/
%%humdrum-veritas 2492973596
%%humdrum-veritas-data 2126544307
%%linebreak <none>
%%barnumbers 0
L: 1/4
M: 2/1
Q: 1/2=120
%%staves [1 2 3 4]
V: 1 clef=treble
V: 2 clef=treble
V: 3 clef=treble
V: 4 clef=treble-8
K: C
[V:1] z8 | 
[V:2] D8 | 
[V:3] D8 | 
[V:4] d6cB | 
[V:1] z8 | 
[V:2] A8 | 
[V:3] F8 | 
[V:4] A4d4 | 
[V:1] z8 | 
[V:2] _B8 | 
[V:3] G8 | 
[V:4] G8 | 
[V:1] A8 | 
[V:2] A4c4- | 
[V:3] A8- | 
[V:4] z8 | 
[V:1] c8 | 
[V:2] c2_B2A4 | 
[V:3] A8 | 
[V:4] z8 | 
[V:1] d8 | 
[V:2] G8 | 
[V:3] _B8 | 
[V:4] z8 | 
[V:1] e8 | 
[V:2] z8 | 
[V:3] A8 | 
[V:4] z8 | 
[V:1] e4e4- | 
[V:2] z8 | 
[V:3] G4A4 | 
[V:4] z8 | 
[V:1] e2d2e4 | 
[V:2] z8 | 
[V:3] B4c4- | 
[V:4] z8 | 
[V:1] f4g4- | 
[V:2] z8 | 
[V:3] c2BAG2A2 | 
[V:4] z8 | 
[V:1] g2fed4 | 
[V:2] G6FE | 
[V:3] _B8 | 
[V:4] G8 | 
[V:1] c8 | 
[V:2] E8 | 
[V:3] A8 | 
[V:4] A8- | 
[V:1] z8 | 
[V:2] A6GF | 
[V:3] F8 | 
[V:4] A4d4 | 
[V:1] c8 | 
[V:2] G4G4 | 
[V:3] E4E4 | 
[V:4] e4c4 | 
[V:1] f4f4 | 
[V:2] A6B2 | 
[V:3] D8 | 
[V:4] z4d4 | 
[V:1] e8 | 
[V:2] c3BAGA2 | 
[V:3] C8 | 
[V:4] A8 | 
[V:1] d8- | 
[V:2] D6E2 | 
[V:3] F6G2 | 
[V:4] _B8 | 
[V:1] d4c4 | 
[V:2] F2G2E4 | 
[V:3] A2_B2A4- | 
[V:4] z4A4 | 
[V:1] _B8 | 
[V:2] z4E4 | 
[V:3] A2GFG4 | 
[V:4] d4e4 | 
[V:1] A4d4- | 
[V:2] A6G2 | 
[V:3] A4F4 | 
[V:4] f4d4 | 
[V:1] d2^cBc4 | 
[V:2] A4A4 | 
[V:3] E8 | 
[V:4] A8 | 
[V:1] d6e2 | 
[V:2] F6G2 | 
[V:3] D8 | 
[V:4] _B8 | 
[V:1] f4g4- | 
[V:2] A4D4- | 
[V:3] z8 | 
[V:4] A4G4 | 
[V:1] g2f2e2d2 | 
[V:2] D8 | 
[V:3] G6FG | 
[V:4] _B8 | 
[V:1] !fermata!c8 | 
[V:2] !fermata!E8 | 
[V:3] !fermata!A8 | 
[V:4] !fermata!A8 | 
[V:1] z8 | 
[V:2] D6E2 | 
[V:3] A8 | 
[V:4] f6e2 | 
[V:1] z8 | 
[V:2] F4F2ED | 
[V:3] B4B4 | 
[V:4] d4d4 | 
[V:1] c6d2 | 
[V:2] C4c4 | 
[V:3] c6BA | 
[V:4] A6B2 | 
[V:1] e4e4 | 
[V:2] c4c4 | 
[V:3] G4G4 | 
[V:4] c4c4 | 
[V:1] f6ef | 
[V:2] A6GF | 
[V:3] F4A4 | 
[V:4] F8 | 
[V:1] g4e4 | 
[V:2] E3FG4- | 
[V:3] G4c4- | 
[V:4] c8 | 
[V:1] d8 | 
[V:2] G2F2G4 | 
[V:3] c2BAB4 | 
[V:4] G8 | 
[V:1] c4e4 | 
[V:2] C4c4 | 
[V:3] c6Bc | 
[V:4] z8 | 
[V:1] d4g4- | 
[V:2] B4G2FE | 
[V:3] d4B4 | 
[V:4] z8 | 
[V:1] g4^f4 | 
[V:2] FEDCD4 | 
[V:3] A8 | 
[V:4] z8 | 
[V:1] g4z2c2 | 
[V:2] E3FG2F2 | 
[V:3] G6A2 | 
[V:4] c3de2f2- | 
[V:1] d2e2f3g | 
[V:2] D2G2A2B2 | 
[V:3] B2c2d2B2 | 
[V:4] f2e2d2g2 | 
[V:1] e8- | 
[V:2] G8 | 
[V:3] c6BA | 
[V:4] c8- | 
[V:1] e8 | 
[V:2] c8 | 
[V:3] G4G4 | 
[V:4] c8 | 
[V:1] z4c4 | 
[V:2] c4cBAG | 
[V:3] A4A4 | 
[V:4] f6e2 | 
[V:1] d4d4 | 
[V:2] F4F4 | 
[V:3] B4B4 | 
[V:4] d4d4 | 
[V:1] e6d2 | 
[V:2] G6FE | 
[V:3] c6B2 | 
[V:4] c8 | 
[V:1] c4B4 | 
[V:2] F4G4 | 
[V:3] A4G4 | 
[V:4] z8 | 
[V:1] A4d4- | 
[V:2] D6EF | 
[V:3] A4F4 | 
[V:4] z8 | 
[V:1] d4^c4 | 
[V:2] G4A4 | 
[V:3] E8 | 
[V:4] z4A4 | 
[V:1] d4e2f2- | 
[V:2] FGABc3B | 
[V:3] D4A4- | 
[V:4] d4c4 | 
[V:1] f2edc3d | 
[V:2] AGA4GF | 
[V:3] A8- | 
[V:4] d4A2c2- | 
[V:1] e2c2B4 | 
[V:2] E2e3dcB | 
[V:3] A4G4 | 
[V:4] c2d2e4 | 
[V:1] A4G3A | 
[V:2] cBc3B/A/G2- | 
[V:3] A2F2E4 | 
[V:4] A3Bc4 | 
[V:1] B2c2B2d2- | 
[V:2] G2F2G2F2 | 
[V:3] D2C2E2D2 | 
[V:4] G2A2G2B2 | 
[V:1] dcBAc2B2- | 
[V:2] A4G4 | 
[V:3] F4E4 | 
[V:4] A2c3BG2- | 
[V:1] B2A4^G2 | 
[V:2] GFEDE4 | 
[V:3] D2C2B,4 | 
[V:4] G2A2E4 | 
[V:1] A8- | 
[V:2] C6D2 | 
[V:3] A,8- | 
[V:4] A8- | 
[V:1] A8 |]  
[V:2] E8 |]  
[V:3] A,8 |]  
[V:4] A8 |]  



